packages/ffe-icons/icons/filled/sm/background_grid_small.svg

<svg xmlns="http://www.w3.org/2000/svg" height="20" viewBox="0 -960 960 960" width="20"><path d="M228.309-164.001h54.693v-119.001H164.001v54.693q0 26.527 18.891 45.417 18.89 18.891 45.417 18.891Zm106.691 0h119.001v-119.001H335v119.001Zm170.999 0H625v-119.001H505.999v119.001Zm170.999 0h54.693q26.527 0 45.417-18.891 18.891-18.89 18.891-45.417v-54.693H676.998v119.001ZM164.001-676.998h119.001v-119.001h-54.693q-26.527 0-45.417 18.891-18.891 18.89-18.891 45.417v54.693Zm0 170.999h119.001V-625H164.001v119.001Zm0 170.999h119.001v-119.001H164.001V-335ZM335-676.998h119.001v-119.001H335v119.001Zm0 170.999h119.001V-625H335v119.001ZM335-335h119.001v-119.001H335V-335Zm170.999-341.998H625v-119.001H505.999v119.001Zm0 170.999H625V-625H505.999v119.001Zm0 170.999H625v-119.001H505.999V-335Zm170.999-341.998h119.001v-54.693q0-26.527-18.891-45.417-18.89-18.891-45.417-18.891h-54.693v119.001Zm0 170.999h119.001V-625H676.998v119.001Zm0 170.999h119.001v-119.001H676.998V-335Z"/></svg>

<svg xmlns="http://www.w3.org/2000/svg" height="20" viewBox="0 -960 960 960" width="20"><path d="M228.31-164H283v-119H164v54.69q0 26.53 18.89 45.42T228.31-164ZM335-164h119v-119H335v119Zm171 0h119v-119H506v119Zm171 0h54.69q26.53 0 45.42-18.89T796-228.31V-283H677v119ZM164-677h119v-119h-54.69q-26.53 0-45.42 18.89T164-731.69V-677Zm0 171h119v-119H164v119Zm0 171h119v-119H164v119Zm171-342h119v-119H335v119Zm0 171h119v-119H335v119Zm0 171h119v-119H335v119Zm171-342h119v-119H506v119Zm0 171h119v-119H506v119Zm0 171h119v-119H506v119Zm171-342h119v-54.69q0-26.53-18.89-45.42T731.69-796H677v119Zm0 171h119v-119H677v119Zm0 171h119v-119H677v119Z"/></svg>
